assets/icons/qvision/add_chart.svg

<svg width="24" height="24" viewBox="0 0 24 24" fill="none" xmlns="http://www.w3.org/2000/svg">
<g clip-path="url(#clip0_147_2511)">
<path d="M6 9.99H8V16.99H6V9.99ZM14 12.99H16V16.99H14V12.99ZM10 6.99H12V16.99H10V6.99ZM20 7V4H18V7H15V9H18V12H20V9H23V7H20ZM18 19H4V5H16V3H4C2.9 3 2 3.9 2 5V19C2 20.1 2.9 21 4 21H18C19.1 21 20 20.1 20 19V14H18V19Z" fill="#323232"/>
</g>
<defs>
<clipPath id="clip0_147_2511">
<rect width="24" height="24" fill="white"/>
</clipPath>
</defs>
</svg>

<svg xmlns="http://www.w3.org/2000/svg" height="24" viewBox="0 0 24 24" width="24"><path d="M0 0h24v24H0V0z" fill="none"/><path d="M6 9.99h2v7H6zm8 3h2v4h-2zm-4-6h2v10h-2zM20 7V4h-2v3h-3v2h3v3h2V9h3V7zm-2 12H4V5h12V3H4c-1.1 0-2 .9-2 2v14c0 1.1.9 2 2 2h14c1.1 0 2-.9 2-2v-5h-2v5z"/></svg>
